svg/black/pre.svg

<?xml version="1.0" encoding="UTF-8"?>
<svg width="32px" height="32px" viewBox="0 0 32 32" version="1.1" xmlns="http://www.w3.org/2000/svg" xmlns:xlink="http://www.w3.org/1999/xlink">
    <!-- Generator: Sketch 53 (72520) - https://sketchapp.com -->
    <title>svg/black/pre</title>
    <desc>Created with Sketch.</desc>
    <g id="black/pre" stroke="none" stroke-width="1" fill="none" fill-rule="evenodd">
        <path d="M16,32 C7.163444,32 0,24.836556 0,16 C0,7.163444 7.163444,0 16,0 C24.836556,0 32,7.163444 32,16 C32,24.836556 24.836556,32 16,32 Z M13.4702564,18.0451282 L15.1476923,18.0451282 C15.6273625,18.0468514 16.1013976,17.9417438 16.5353846,17.7374359 C16.9452287,17.5344879 17.3111492,17.2529033 17.6123077,16.9087179 C17.9108143,16.5529314 18.1424152,16.1460226 18.2958974,15.7076923 C18.46181,15.2639276 18.5459046,14.7937624 18.5441026,14.32 C18.5470258,13.8576241 18.455407,13.3995303 18.2748718,12.9738462 C18.1011893,12.5428288 17.8562324,12.1441021 17.5502564,11.794359 C17.242149,11.4435949 16.8693795,11.1554428 16.4523077,10.945641 C16.0244376,10.7245763 15.5492861,10.6107159 15.0676923,10.6138462 L10.6574359,10.6137833 L10.6574359,21.3174359 L13.4738462,21.3174359 L13.4702564,18.0451282 Z M13.4702564,13.1989744 L14.8974359,13.1989744 C15.0957299,13.2118683 15.281341,13.3009984 15.4153846,13.4476923 C15.5810256,13.6133333 15.6846154,13.9035897 15.6846154,14.3589744 C15.6846154,14.814359 15.5820513,15.0835897 15.4358974,15.2307692 C15.3117949,15.3758974 15.1461538,15.4794872 14.96,15.4794872 L13.4702564,15.4794872 L13.4702564,13.1989744 Z M7.0225641,8.03076923 L7.0225641,23.9179487 C7.0225641,24.4872268 7.48405521,24.9487179 8.05333333,24.9487179 L23.9405128,24.9487179 C24.5097909,24.9487179 24.9712821,24.4872268 24.9712821,23.9179487 L24.9712821,8.03076923 C24.9712821,7.4614911 24.5097909,7 23.9405128,7 L8.05333333,7 C7.48405521,7 7.0225641,7.4614911 7.0225641,8.03076923 Z M21.8261538,22.834359 L10.1461538,22.834359 C9.87268801,22.834495 9.61037606,22.7259565 9.4169584,22.532635 C9.22354074,22.3393135 9.11487176,22.0770556 9.11487179,21.8035897 L9.11487179,10.1235897 C9.11487176,9.85012387 9.22354074,9.58786594 9.4169584,9.39454446 C9.61037606,9.20122298 9.87268801,9.09268446 10.1461538,9.09282051 L21.8261538,9.09282051 C22.395432,9.09282051 22.8569231,9.55431162 22.8569231,10.1235897 L22.8569231,21.8035897 C22.8569231,22.3728679 22.395432,22.834359 21.8261538,22.834359 Z M14.7333333,19.3087179 L14.7333333,21.3384615 L21.34,21.3384615 L21.34,19.3087179 L14.7333333,19.3087179 Z" id="Combined-Shape" fill="#000000" fill-rule="nonzero"></path>
    </g>
</svg>

<svg width="32" height="32" viewBox="0 0 32 32" xmlns="http://www.w3.org/2000/svg"><path d="M16 32C7.163 32 0 24.837 0 16S7.163 0 16 0s16 7.163 16 16-7.163 16-16 16zm-2.53-13.955h1.678a3.23 3.23 0 0 0 1.387-.308c.41-.203.776-.484 1.077-.828.299-.356.53-.763.684-1.201a3.92 3.92 0 0 0 .248-1.388 3.393 3.393 0 0 0-.27-1.346 4.143 4.143 0 0 0-.724-1.18 3.636 3.636 0 0 0-1.098-.848 2.974 2.974 0 0 0-1.384-.332h-4.41v10.703h2.816l-.004-3.272zm0-4.846h1.427a.77.77 0 0 1 .518.249c.166.165.27.456.27.911s-.103.725-.25.872c-.123.145-.289.248-.475.248h-1.49V13.2zM7.023 8.031v15.887c0 .57.461 1.03 1.03 1.03h15.888c.569 0 1.03-.46 1.03-1.03V8.03a1.03 1.03 0 0 0-1.03-1.031H8.053a1.03 1.03 0 0 0-1.03 1.03zm14.803 14.803h-11.68a1.03 1.03 0 0 1-1.031-1.03v-11.68a1.03 1.03 0 0 1 1.031-1.031h11.68c.57 0 1.03.461 1.03 1.03v11.68c0 .57-.46 1.031-1.03 1.031zm-7.093-3.525v2.03h6.607v-2.03h-6.607z"/></svg>
